azure-docs/iot-solution-accelerators.svg

<svg xmlns="http://www.w3.org/2000/svg" id="iot-solution-accelerators" viewBox="0 0 50.2492 56.9004">
    <path d="M25.1341,54.2022a1.003,1.003,0,0,1-.5-.1338L3.1986,41.6924a1,1,0,0,1-.5-.8662V16.0747a1,1,0,0,1,.5-.8662L24.6341,2.833a1,1,0,0,1,1,0L47.07,15.2085a1,1,0,0,1,.5.8662V40.8262a1,1,0,0,1-.5.8662L25.6341,54.0684A1.0027,1.0027,0,0,1,25.1341,54.2022ZM4.6986,40.249,25.1341,52.0479,45.57,40.249V16.6519L25.1341,4.854,4.6986,16.6519Z" fill="#2074bb"/>
    <circle cx="25.1339" cy="3.6986" r="3.6986" fill="#2074bb"/>
    <circle cx="3.6986" cy="16.0731" r="3.6986" fill="#2074bb"/>
    <circle cx="46.5506" cy="16.0731" r="3.6986" fill="#2074bb"/>
    <circle cx="46.5506" cy="40.8261" r="3.6986" fill="#2074bb"/>
    <circle cx="3.6986" cy="40.8261" r="3.6986" fill="#2074bb"/>
    <circle cx="25.1398" cy="53.2018" r="3.6986" fill="#2074bb"/>
    <circle cx="25.1246" cy="28.4505" r="12.712" fill="#fff"/>
    <path d="M25.1244,42.1621A13.7119,13.7119,0,1,1,38.8363,28.4507,13.7276,13.7276,0,0,1,25.1244,42.1621Zm0-25.4238A11.7119,11.7119,0,1,0,36.8363,28.4507,11.7256,11.7256,0,0,0,25.1244,16.7383Z" fill="#2074bb"/>
    <path d="M14.21,22.9341a.9954.9954,0,0,1-.4863-.1265L3.2113,16.9483a1,1,0,0,1,.9746-1.7471l10.5127,5.8594a1,1,0,0,1-.4883,1.8735Z" fill="#2074bb"/>
    <path d="M25.1341,16.7383a1,1,0,0,1-1-1V3.6992a1,1,0,0,1,2,0V15.7383A1,1,0,0,1,25.1341,16.7383Z" fill="#2074bb"/>
    <path d="M36.26,22.7627a1,1,0,0,1-.4844-1.8755l10.3106-5.688a1,1,0,1,1,.9668,1.751l-10.3106,5.688A.9973.9973,0,0,1,36.26,22.7627Z" fill="#2074bb"/>
    <path d="M46.5687,41.8262a.9921.9921,0,0,1-.543-.1611L35.89,35.0928a1,1,0,0,1,1.0879-1.6777l10.1357,6.5722a1,1,0,0,1-.5449,1.8389Z" fill="#2074bb"/>
    <path d="M25.1341,54.2022a1,1,0,0,1-1-1V41.5127a1,1,0,0,1,2,0V53.2022A.9994.9994,0,0,1,25.1341,54.2022Z" fill="#2074bb"/>
    <path d="M3.7,41.8262a1,1,0,0,1-.5655-1.8252l9.9834-6.835a1,1,0,1,1,1.1289,1.65L4.263,41.6514A.9931.9931,0,0,1,3.7,41.8262Z" fill="#2074bb"/>
    <path d="M25.1244,29.4507a1,1,0,0,1,0-2l8.6923-.0005a1,1,0,0,1,0,2Z" fill="#2074bb"/>
    <circle cx="25.1094" cy="28.4507" r="1.4858" fill="#2074bb"/>
    <path d="M16.6771,28.935A8.4722,8.4722,0,0,0,19.1405,34.18l2.2878-2.2876a5.3726,5.3726,0,0,1-1.5954-2.9577Z" fill="#c0dcef"/>
    <path d="M24.64,19.6805a8.47,8.47,0,0,0-5.5234,2.4777l2.1129,2.1128A5.3651,5.3651,0,0,1,24.64,22.63Z" fill="#69abdb"/>
    <path d="M31.1631,22.1581A8.4692,8.4692,0,0,0,25.64,19.68V22.63a5.3651,5.3651,0,0,1,3.41,1.6412Z" fill="#3b8fcd"/>
    <path d="M18.4569,22.9128A8.4532,8.4532,0,0,0,16.649,27.935h3.0926a5.3654,5.3654,0,0,1,.8639-2.8737Z" fill="#9bc7e6"/>
    <path d="M33.4293,26.3252a8.45,8.45,0,0,0-1.6067-3.4126l-2.1485,2.1485a5.4261,5.4261,0,0,1,.5961,1.2641Z" fill="#2074bb"/>
</svg>

<svg xmlns="http://www.w3.org/2000/svg" viewBox="0 0 50.249 56.9"><path d="M25.134 54.202a1.003 1.003 0 0 1-.5-.134L3.2 41.692a1 1 0 0 1-.5-.866V16.075a1 1 0 0 1 .5-.866L24.634 2.833a1 1 0 0 1 1 0L47.07 15.209a1 1 0 0 1 .5.866v24.751a1 1 0 0 1-.5.866L25.634 54.068a1.003 1.003 0 0 1-.5.134zM4.7 40.25l20.435 11.799L45.57 40.249V16.652L25.134 4.854 4.7 16.652z" fill="#2074bb"/><circle cx="25.134" cy="3.699" r="3.699" fill="#2074bb"/><circle cx="3.699" cy="16.073" r="3.699" fill="#2074bb"/><circle cx="46.551" cy="16.073" r="3.699" fill="#2074bb"/><circle cx="46.551" cy="40.826" r="3.699" fill="#2074bb"/><circle cx="3.699" cy="40.826" r="3.699" fill="#2074bb"/><circle cx="25.14" cy="53.202" r="3.699" fill="#2074bb"/><circle cx="25.125" cy="28.451" r="12.712" fill="#fff"/><path d="M25.124 42.162a13.712 13.712 0 1 1 13.712-13.711 13.728 13.728 0 0 1-13.712 13.711zm0-25.424a11.712 11.712 0 1 0 11.712 11.713 11.726 11.726 0 0 0-11.712-11.713z" fill="#2074bb"/><path d="M14.21 22.934a.995.995 0 0 1-.486-.126L3.21 16.948a1 1 0 0 1 .975-1.747l10.513 5.86a1 1 0 0 1-.489 1.873zM25.134 16.738a1 1 0 0 1-1-1V3.7a1 1 0 0 1 2 0v12.04a1 1 0 0 1-1 1zM36.26 22.763a1 1 0 0 1-.484-1.876l10.31-5.688a1 1 0 1 1 .967 1.751l-10.31 5.688a.997.997 0 0 1-.483.125zM46.569 41.826a.992.992 0 0 1-.543-.16L35.89 35.092a1 1 0 0 1 1.088-1.678l10.136 6.572a1 1 0 0 1-.545 1.84zM25.134 54.202a1 1 0 0 1-1-1v-11.69a1 1 0 0 1 2 0v11.69a1 1 0 0 1-1 1zM3.7 41.826a1 1 0 0 1-.566-1.825l9.984-6.835a1 1 0 1 1 1.129 1.65l-9.984 6.835a.993.993 0 0 1-.563.175zM25.124 29.45a1 1 0 0 1 0-2h8.693a1 1 0 0 1 0 2z" fill="#2074bb"/><circle cx="25.109" cy="28.451" r="1.486" fill="#2074bb"/><path d="M16.677 28.935a8.472 8.472 0 0 0 2.463 5.245l2.288-2.288a5.373 5.373 0 0 1-1.595-2.957z" fill="#c0dcef"/><path d="M24.64 19.68a8.47 8.47 0 0 0-5.523 2.478l2.113 2.113a5.365 5.365 0 0 1 3.41-1.641z" fill="#69abdb"/><path d="M31.163 22.158a8.47 8.47 0 0 0-5.523-2.478v2.95a5.365 5.365 0 0 1 3.41 1.641z" fill="#3b8fcd"/><path d="M18.457 22.913a8.453 8.453 0 0 0-1.808 5.022h3.093a5.365 5.365 0 0 1 .864-2.874z" fill="#9bc7e6"/><path d="M33.43 26.325a8.45 8.45 0 0 0-1.607-3.412l-2.149 2.148a5.426 5.426 0 0 1 .596 1.264z" fill="#2074bb"/></svg>
